svg/emoji_u1f392.svg

<svg viewBox="0 0 128 128" xmlns="http://www.w3.org/2000/svg" xmlns:xlink="http://www.w3.org/1999/xlink">
  <path d="m63.86 4c-12.1 0-22 9.72-22 21.59v3.38c0 3.65 2.2 6.65 6.6 7.02v-10.4c0-8.31 6.93-15.11 15.4-15.11 8.51 0 15.4 6.77 15.4 15.11v10.42c3.3-0.2 6.6-3.27 6.6-7.04v-3.38c0-11.92-9.85-21.59-22-21.59z" fill="#1565C0"/>
  <path d="m81.73 98.04h-35.58c-2.24 0-4.06-1.82-4.06-4.06v-0.65c0-2.24 1.82-4.06 4.06-4.06h35.58c2.24 0 4.06 1.82 4.06 4.06v0.65c0 2.24-1.82 4.06-4.06 4.06z" fill="#29B6F6"/>
  <linearGradient id="d" gradientUnits="userSpaceOnUse" x1="63.859" x2="63.859" y1="123.02" y2="15.275">
    <stop offset=".2164" stop-color="#1E88E5"/>
    <stop offset=".8598" stop-color="#42A5F5"/>
  </linearGradient>
  <path d="m26.72 124h74.28c5.13 0 9.28-3.87 9.28-8.64v-54.68c0-25.64-20.78-44.42-46.42-44.42s-46.42 18.78-46.42 44.42v54.68c-0.01 4.77 4.15 8.64 9.28 8.64z" fill="url(#d)"/>
  <radialGradient id="c" cx="63.523" cy="104.07" gradientTransform="matrix(1 0 0 .2631 0 76.688)" gradientUnits="userSpaceOnUse" r="53.477">
    <stop offset=".2274" stop-color="#1E88E5"/>
    <stop offset=".9046" stop-color="#1565C0"/>
  </radialGradient>
  <path d="m88.89 114.61h-49.74c-5.52 0-10-4.48-10-10v-30.08c0-1.66 1.34-3 3-3h63.74c1.66 0 3 1.34 3 3v30.08c0 5.52-4.47 10-10 10z" fill="url(#c)"/>
  <defs>
    <path id="b" d="m26.72 124h74.28c5.13 0 9.28-3.87 9.28-8.64v-54.68c0-25.64-20.78-44.42-46.42-44.42s-46.42 18.78-46.42 44.42v54.68c-0.01 4.77 4.15 8.64 9.28 8.64z"/>
  </defs>
  <clipPath>
    <use xlink:href="#b"/>
  </clipPath>
  <path d="m74.09 51.86h-20.18c-4.25 0-7.69-3.44-7.69-7.69s3.44-7.69 7.69-7.69h20.17c4.25 0 7.69 3.44 7.69 7.69 0.01 4.25-3.44 7.69-7.68 7.69z" fill="#FBC02D"/>
  <g opacity=".2">
    <path d="m63.86 19.26c11.76 0 22.69 4.18 30.77 11.78 8.16 7.67 12.65 18.2 12.65 29.64v54.68c0 3.11-2.82 5.64-6.28 5.64h-74.28c-3.47 0-6.28-2.53-6.28-5.64v-54.68c0-11.44 4.49-21.97 12.65-29.64 8.08-7.6 19-11.78 30.77-11.78m0-3c-25.64 0-46.42 18.78-46.42 44.42v54.68c0 4.77 4.16 8.64 9.28 8.64h74.28c5.13 0 9.28-3.87 9.28-8.64v-54.68c0-25.64-20.78-44.42-46.42-44.42z" fill="#424242"/>
  </g>
  <g opacity=".2">
    <path d="m95.89 73.53c0.55 0 1 0.45 1 1v30.08c0 4.41-3.59 8-8 8h-49.74c-4.41 0-8-3.59-8-8v-30.08c0-0.55 0.45-1 1-1h63.74m0-2h-63.74c-1.66 0-3 1.34-3 3v30.08c0 5.52 4.48 10 10 10h49.74c5.52 0 10-4.48 10-10v-30.08c0-1.65-1.34-3-3-3z" fill="#424242"/>
  </g>
  <linearGradient id="a" gradientUnits="userSpaceOnUse" x1="64.11" x2="64.11" y1="68.667" y2="95.002">
    <stop offset=".2274" stop-color="#9CCC65"/>
    <stop offset=".9046" stop-color="#7CB342"/>
  </linearGradient>
  <path d="m88.98 94.6h-49.74c-5.52 0-10-5.48-10-11v-11.3c0-2.21 1.79-4 4-4h61.74c2.21 0 4 1.79 4 4v11.3c0 5.53-4.48 11-10 11z" fill="url(#a)"/>
  <g opacity=".2">
    <path d="m94.98 70.3c1.1 0 2 0.9 2 2v11.3c0 5.15-4.22 9-8 9h-49.74c-3.78 0-8-3.85-8-9v-11.3c0-1.1 0.9-2 2-2h61.74m0-2h-61.74c-2.21 0-4 1.79-4 4v11.3c0 5.52 4.48 11 10 11h49.74c5.52 0 10-5.48 10-11v-11.3c0-2.2-1.79-4-4-4z" fill="#424242"/>
  </g>
  <path d="m64 102.43c-2.77 0-5.02-2.25-5.02-5.02v-6.73c0-2.77 2.25-5.02 5.02-5.02s5.02 2.25 5.02 5.02v6.73c0 2.78-2.25 5.02-5.02 5.02z" fill="#FFEB3B"/>
  <g opacity=".2">
    <path d="m64 87.67c1.67 0 3.02 1.36 3.02 3.02v6.73c0 1.67-1.36 3.02-3.02 3.02s-3.02-1.36-3.02-3.02v-6.73c0-1.67 1.35-3.02 3.02-3.02m0-2c-2.77 0-5.02 2.25-5.02 5.02v6.73c0 2.77 2.25 5.02 5.02 5.02s5.02-2.25 5.02-5.02v-6.73c0-2.78-2.25-5.02-5.02-5.02z" fill="#424242"/>
  </g>
  <g opacity=".2">
    <path d="m74.09 39.48c2.59 0 4.69 2.1 4.69 4.69s-2.1 4.69-4.69 4.69h-20.18c-2.59 0-4.69-2.1-4.69-4.69s2.1-4.69 4.69-4.69h20.18m0-3h-20.18c-4.25 0-7.69 3.44-7.69 7.69s3.44 7.69 7.69 7.69h20.17c4.25 0 7.69-3.44 7.69-7.69 0.01-4.25-3.44-7.69-7.68-7.69z" fill="#424242"/>
  </g>
</svg>

<svg viewBox="0 0 128 128" xmlns="http://www.w3.org/2000/svg" xmlns:xlink="http://www.w3.org/1999/xlink">
  <g>
    <path d="M63.9,4c-12.1,0-22,9.7-22,21.6V29c0,3.7,2.2,6.7,6.6,7V25.6c0-8.3,6.9-15.1,15.4-15.1s15.4,6.8,15.4,15.1 V36c3.3-0.2,6.6-3.3,6.6-7v-3.4C85.9,13.7,76,4,63.9,4z" fill="#C62828"/>
    <path d="M81.7,98H46.2c-2.2,0-4.1-1.8-4.1-4.1v-0.7c0-2.2,1.8-4.1,4.1-4.1h35.6c2.2,0,4.1,1.8,4.1,4.1V94 C85.8,96.2,84,98,81.7,98z" fill="#29B6F6"/>
    <linearGradient id="SVGID_1_" gradientTransform="matrix(1 0 0 1 0 -4121.9702)" gradientUnits="userSpaceOnUse" x1="63.85" x2="63.85" y1="4244.9902" y2="4137.29">
      <stop offset="0.2164" style="stop-color:#C62828"/>
      <stop offset="0.8598" style="stop-color:#E53935"/>
    </linearGradient>
    <path d="M26.7,124H101c5.1,0,9.3-3.9,9.3-8.6V60.7c0-25.6-20.8-44.4-46.4-44.4S17.4,35,17.4,60.7v54.7 C17.4,120.1,21.6,124,26.7,124z" fill="url(#SVGID_1_)"/>
    <radialGradient id="SVGID_2_" cx="63.523" cy="12368.0713" gradientTransform="matrix(1 0 0 0.2631 0 -3149.9707)" gradientUnits="userSpaceOnUse" r="53.477">
      <stop offset="0.2274" style="stop-color:#E53935"/>
      <stop offset="0.9046" style="stop-color:#C62828"/>
    </radialGradient>
    <path d="M88.9,114.6H39.1c-5.5,0-10-4.5-10-10V74.5c0-1.7,1.3-3,3-3h63.7c1.7,0,3,1.3,3,3v30.1 C98.9,110.1,94.4,114.6,88.9,114.6z" fill="url(#SVGID_2_)"/>
    <path d="M74.1,51.9H53.9c-4.2,0-7.7-3.4-7.7-7.7s3.4-7.7,7.7-7.7h20.2c4.2,0,7.7,3.4,7.7,7.7 C81.8,48.4,78.3,51.9,74.1,51.9z" fill="#FAB300"/>
    <g opacity="0.2">
      <path d="M63.9,19.3c11.8,0,22.7,4.2,30.8,11.8c8.2,7.7,12.7,18.2,12.7,29.6v54.7c0,3.1-2.8,5.6-6.3,5.6H26.7 c-3.5,0-6.3-2.5-6.3-5.6V60.7c0-11.4,4.5-22,12.6-29.6C41.2,23.4,52.1,19.3,63.9,19.3 M63.9,16.3c-25.6,0-46.4,18.8-46.4,44.4 v54.7c0,4.8,4.2,8.6,9.3,8.6H101c5.1,0,9.3-3.9,9.3-8.6V60.7C110.3,35,89.5,16.3,63.9,16.3z" fill="#424242"/>
    </g>
    <g opacity="0.2">
      <path d="M95.9,73.5c0.6,0,1,0.4,1,1v30.1c0,4.4-3.6,8-8,8H39.1c-4.4,0-8-3.6-8-8V74.5c0-0.6,0.5-1,1-1H95.9 M95.9,71.5H32.1c-1.7,0-3,1.3-3,3v30.1c0,5.5,4.5,10,10,10h49.7c5.5,0,10-4.5,10-10V74.5C98.9,72.9,97.6,71.5,95.9,71.5z" fill="#424242"/>
    </g>
    <linearGradient id="SVGID_3_" gradientTransform="matrix(1 0 0 1 0 -4121.9702)" gradientUnits="userSpaceOnUse" x1="64.1" x2="64.1" y1="4190.6372" y2="4216.9722">
      <stop offset="0.2274" style="stop-color:#E53935"/>
      <stop offset="0.9046" style="stop-color:#C62828"/>
    </linearGradient>
    <path d="M89,94.6H39.2c-5.5,0-10-5.5-10-11V72.3c0-2.2,1.8-4,4-4H95c2.2,0,4,1.8,4,4v11.3 C99,89.1,94.5,94.6,89,94.6z" fill="url(#SVGID_3_)"/>
    <g opacity="0.2">
      <path d="M95,70.3c1.1,0,2,0.9,2,2v11.3c0,5.2-4.2,9-8,9H39.2c-3.8,0-8-3.8-8-9V72.3c0-1.1,0.9-2,2-2H95 M95,68.3 H33.2c-2.2,0-4,1.8-4,4v11.3c0,5.5,4.5,11,10,11H89c5.5,0,10-5.5,10-11V72.3C99,70.1,97.2,68.3,95,68.3z" fill="#424242"/>
    </g>
    <path d="M64,102.4c-2.8,0-5-2.2-5-5v-6.7c0-2.8,2.2-5,5-5c2.8,0,5,2.2,5,5v6.7C69,100.2,66.8,102.4,64,102.4z" fill="#FFEB3B"/>
    <g opacity="0.2">
      <path d="M64,87.7c1.7,0,3,1.4,3,3v6.7c0,1.7-1.4,3-3,3s-3-1.4-3-3v-6.7C61,89,62.3,87.7,64,87.7 M64,85.7 c-2.8,0-5,2.2-5,5v6.7c0,2.8,2.2,5,5,5c2.8,0,5-2.2,5-5v-6.7C69,87.9,66.8,85.7,64,85.7z" fill="#424242"/>
    </g>
    <g opacity="0.2">
      <path d="M74.1,39.5c2.6,0,4.7,2.1,4.7,4.7s-2.1,4.7-4.7,4.7H53.9c-2.6,0-4.7-2.1-4.7-4.7s2.1-4.7,4.7-4.7H74.1 M74.1,36.5H53.9c-4.2,0-7.7,3.4-7.7,7.7s3.4,7.7,7.7,7.7h20.2c4.2,0,7.7-3.4,7.7-7.7S78.3,36.5,74.1,36.5z" fill="#424242"/>
    </g>
  </g>
</svg>
